X:1
T:Title
%%score { ( 1 4 5 ) | ( 2 3 ) }
L:1/8
M:6/8
K:Bb
V:1 treble nm="Grand Piano"
V:4 treble 
V:5 treble 
V:2 bass 
V:3 bass 
V:1
 z3 z2[Q:1/4=100] [DF] | [DF][_D=E][=DF] [B,D][C_E][DF] | [EG]2 [GB] [GB]2 [Gc] | d2 d e2 d | %4
 c3- c2 [CAc] | [CAc][_A=B][C=Ac] [FA][G_B][Ac] | [Fd]2 [Fd] [DFB]2 [DGB] | %7
 [CFA]2 [CFA] [B,=EG]F[G,CE] | [A,CF]6 | [Fd]3- [Fd]_d[F=d] | B,2 B, z c[_Ad] | .[Ge]6 | [EG]6 | %13
 [=Ec][Ec][Ec] [Ed][Ec]G | ccc dcA | [DGB]2 [DGB] [CFA]2 [B,CG] | [A,C]=B,C z/ G/A/B/c/e/ | %17
 [Fd]3- [Fd]_d[F=d] | B,2 B, z c[_Ad] | .[Ge]6 | [EG]6 | AAA FGA | BBB GAB | [=EGc]2 [EB] d2 c | %24
[M:5/8] [DB]-[DB]- [DB]3 |] %25
V:2
 z3 z2 [B,,B,] | [B,,B,]2 [B,,B,] [B,,F,]2 [B,,B,] | [E,B,]2 [E,B,] [E,B,]2 [E,B,] | %3
 [B,F]2 [B,F] [B,G]2 [B,F] | [F,A,F]3- [F,A,F]2[K:bass] F, | z DF, [F,C]2 [F,C] | %6
 [B,,B,]2 [B,,B,] B,,2 B,, | C,2 C, z A,C, | F,6 | B,B,B, z =EB, | B,,2 B,, z E[B,,B,] | %11
 [E,B,]E,E, z F[E,B,] | [E,B,]2 E, E,2 [E,G,E] | [C,G,][C,G,][C,G,] [C,B,][C,B,][=E,B,] | %14
 [F,A,F][F,A,F][F,A,F] [F,B,F][F,A,F][F,CF] | B,,2 G,, C,2 C, | z _A,=A, .C3 | B,B,B, z =EB, | %18
 B,,2 B,, z E[B,,B,] | [E,B,]E,E, z F[E,B,] | [E,B,]2 E, E,2 [E,G,E] | %21
 [F,E][F,E][F,E] [F,A,E][F,B,E][F,CE] | [G,B,D][G,D][G,D] [G,B,D][G,CD][G,DG] | %23
 C,2 [C,G,] [F,B,F]2 [F,E] |[M:5/8] [B,,F,]-[B,,F,]- [B,,F,]3 |] %25
V:3
 x6 | x6 | x6 | x6 | x5[K:bass] x | .F,3 z3 | x6 | z3 .C,3 | x6 | z3 .B,3 | z3 .B,,3 | z3 .E,3 | %12
 x6 | x6 | x6 | x6 | F,6 | z3 .B,3 | z3 .B,,3 | z3 .E,3 | x6 | x6 | x6 | x6 |[M:5/8] x5 |] %25
V:4
 x6 | x6 | x6 | x6 | x6 | x6 | x6 | x6 | x6 | x6 | .[DB]6 | z B,B, z d[Ge] | z2 B, B,2 B | x6 | %14
 x6 | x6 | .F6 | x6 | .[DB]6 | z B,B, z d[Ge] | z2 B, B,2 B | x6 | x6 | x6 |[M:5/8] x5 |] %25
V:5
 x6 | x6 | x6 | x6 | x6 | x6 | x6 | x6 | x6 | x6 | z3 .B,3 | z3 .B,3 | x6 | x6 | x6 | x6 | z3 .E3 | %17
 x6 | z3 .B,3 | z3 .B,3 | x6 | x6 | x6 | x6 |[M:5/8] x5 |] %25

